X:1
T:Title
%%score [ ( 1 2 ) ( 3 4 ) ] { ( 5 6 ) | ( 7 8 ) }
L:1/8
Q:1/4=120
M:4/4
K:Ab
V:1 treble nm="Midi_74"
V:2 treble 
V:3 bass nm="Midi_74"
V:4 bass 
V:5 treble nm="Org."
V:6 treble 
V:7 bass 
V:8 bass 
V:1
 c8 | B4 B4 | A8 || A8 | G4 A4 | B4 G4 | A8 || A8 | G4 G4 | F8 || F8 | =E4 F4 | %12
"^William Henry Havergal\n(1793-1870)" G4 =E4 | F8 |] %14
V:2
 F8 | F4 =E4 | F8 || F8 | E4 E4 | F4 D4 | C8 || F8 | F4 =E4 | F8 || D8 | C4 C4 | D4 (C2 B,2) | %13
 A,8 |] %14
V:3
 C8 | D4 C4 | C8 || D8 | B,4 C4 | D4 B,4 | A,8 || C8 | D4 (C2 B,2) | A,8 || B,8 | G,4 F,4 | %12
 B,4 G,4 | F,8 |] %14
V:4
 A,8 | G,4 C,4 | F,8 || D,8 | D,4 C,4 | B,,4 E,4 | A,,8 || F,8 | B,,4 C,4 | D,8 || B,,8 | %11
 B,,4 A,,4 | G,,4 C,4 | F,8 |] %14
V:5
 c8 | B4 B4 | A8 || A8 | G4 A4 | B4 G4 | A8 || A8 | G4 [=EG]4 | F8 || F8 | =E4 F4 | G4 =E4 | F8 |] %14
V:6
 [CF]8 | [DF]4 [C=E]4 | [CF]8 || [DF]8 | [B,E]4 [A,E]4 | [DF]4 [B,D]4 | [A,C]8 || [CF]8 | %8
 [DF]4 C2 B,2 | [A,F]8 || [B,D]8 | C4 C4 | D4 C2 B,2 | A,8 |] %14
V:7
 x8 | x8 | x8 || x8 | x8 | x8 | x8 || x8 | x8 | x8 || x8 | G,4 F,4 | B,4 G,4 | x8 |] %14
V:8
 A,8 | G,4 C,4 | F,8 || D,8 | D,4 C,4 | B,,4 E,4 | A,,8 || F,8 | B,,4 C,4 | D,8 || B,,8 | %11
 B,,4 A,,4 | G,,4 C,4 | F,8 |] %14

